brandFactory_export/1.Light/Chip_Equipo_1Light.svg

<?xml version="1.0" encoding="UTF-8"?>
<svg width="24px" height="24px" viewBox="0 0 24 24" version="1.1" xmlns="http://www.w3.org/2000/svg" xmlns:xlink="http://www.w3.org/1999/xlink">
    <title>1.Light/Chip_Equipo_1Light</title>
    <g id="Symbols" stroke="none" stroke-width="1" fill="none" fill-rule="evenodd">
        <g id="1.Light/Chip_Equipo_1Light" fill="#5CB615" fill-rule="nonzero">
            <path d="M12.2016807,8.95283847e-13 C14.6319328,8.95283847e-13 15.7647059,1.14957983 15.7647059,3.61344538 L15.7638067,5.25 L17.8319328,5.25042017 C18.5747899,5.25042017 19.0352941,5.71092437 19.0352941,6.45378151 L19.0352941,14.5478992 C19.0352941,15.287395 18.5714286,15.7478992 17.8319328,15.7478992 L15.7638067,15.747 L15.7647059,20 C15.7647059,21.2470588 15.4823529,22.1411765 14.897479,22.7327731 C14.312605,23.3243697 13.4319328,23.6134454 12.2016807,23.6134454 L3.57983193,23.6134454 C2.34957983,23.6134454 1.46554622,23.3243697 0.880672268,22.7327731 C0.295798319,22.1411765 0.0168067223,21.2470588 0.0168067223,20 L0.0168067223,3.61344538 C0.0168067223,1.18319328 1.18319328,8.95283847e-13 3.57983193,8.95283847e-13 L12.2016807,8.95283847e-13 Z M12.2016807,0.672268908 L3.57983193,0.672268908 C1.55294118,0.672268908 0.68907563,1.55294118 0.68907563,3.61344538 L0.68907563,20 C0.68907563,21.0621849 0.907563025,21.8016807 1.36134454,22.2621849 C1.81512605,22.7226891 2.53781513,22.9445378 3.57983193,22.9445378 L12.2016807,22.9445378 C13.2436975,22.9445378 13.9697479,22.7226891 14.4201681,22.2621849 C14.8705882,21.8016807 15.092437,21.0621849 15.092437,20 L15.0918067,15.747 L13.0084034,15.7478992 C12.2655462,15.7478992 11.805042,15.287395 11.805042,14.5445378 L11.805042,7.54621849 C11.805042,7.45546218 11.8420168,7.37142857 11.902521,7.30756303 L13.8689076,5.34789916 C13.9327731,5.28403361 14.0168067,5.25042017 14.107563,5.25042017 L15.0918067,5.25 L15.092437,3.61344538 C15.092437,1.52268908 14.2554622,0.672268908 12.2016807,0.672268908 Z M7.89243697,18.8033613 C8.49411765,18.8033613 8.88739496,19.1226891 8.8907563,19.805042 C8.8907563,20.1310924 8.8,20.3764706 8.63865546,20.5411765 C8.46386555,20.7193277 8.20840336,20.8067227 7.89243697,20.8067227 C7.57647059,20.8067227 7.3210084,20.7193277 7.14621849,20.5411765 C6.98487395,20.3764706 6.89411765,20.1344538 6.89411765,19.805042 C6.89411765,19.1226891 7.28739496,18.8033613 7.89243697,18.8033613 Z M17.8319328,5.91932773 L14.2487395,5.91932773 L12.4806723,7.68403361 L12.4806723,14.5445378 C12.4806723,14.9176471 12.6386555,15.0756303 13.0117647,15.0756303 L17.8319328,15.0756303 C18.205042,15.0756303 18.3630252,14.9176471 18.3630252,14.5445378 L18.3630252,6.45042017 C18.3630252,6.07731092 18.205042,5.91932773 17.8319328,5.91932773 Z M17.4453782,9.01512605 C17.6302521,9.01512605 17.7815126,9.16638655 17.7815126,9.3512605 L17.7815126,13.6033613 C17.7815126,13.7915966 17.6302521,13.9428571 17.4453782,13.9428571 L13.394958,13.9428571 C13.210084,13.9428571 13.0588235,13.7915966 13.0588235,13.6067227 L13.0588235,9.3512605 C13.0588235,9.16638655 13.210084,9.01512605 13.394958,9.01512605 L17.4453782,9.01512605 Z M14.4058067,12.591 L13.7328067,12.591 L13.7344538,13.2705882 L14.4058067,13.27 L14.4058067,12.591 Z M15.7538067,12.591 L15.0788067,12.591 L15.0788067,13.27 L15.7538067,13.27 L15.7538067,12.591 Z M17.1088067,12.591 L16.4268067,12.591 L16.4268067,13.27 L17.1092437,13.2705882 L17.1088067,12.591 Z M13.7318067,11.038 L13.7328067,11.919 L17.1088067,11.919 L17.1088067,11.038 L13.7318067,11.038 Z M14.4058067,9.687 L13.7310924,9.68739496 L13.7318067,10.366 L14.4058067,10.366 L14.4058067,9.687 Z M15.7538067,9.687 L15.0788067,9.687 L15.0788067,10.366 L15.7538067,10.366 L15.7538067,9.687 Z M17.1092437,9.68739496 L16.4268067,9.687 L16.4268067,10.366 L17.1088067,10.366 L17.1092437,9.68739496 Z" id="Chip_Equipo_1Light"></path>
        </g>
    </g>
</svg>

<svg width="24" height="24" viewBox="0 0 24 24" xmlns="http://www.w3.org/2000/svg"><path d="M12.202 0c2.43 0 3.563 1.15 3.563 3.613l-.001 1.637h2.068c.743 0 1.203.46 1.203 1.204v8.094c0 .74-.464 1.2-1.203 1.2l-2.068-.001V20c0 1.247-.282 2.141-.867 2.733-.584.591-1.465.88-2.695.88H3.58c-1.23 0-2.114-.289-2.7-.88C.297 22.14.018 21.247.018 20V3.613C.017 1.183 1.183 0 3.58 0h8.622zm0 .672H3.58c-2.027 0-2.89.88-2.89 2.941V20c0 1.062.218 1.802.671 2.262.454.46 1.177.683 2.219.683h8.622c1.042 0 1.768-.222 2.218-.683.45-.46.672-1.2.672-2.262v-4.253h-2.084c-.742 0-1.203-.46-1.203-1.202V7.546c0-.09.037-.175.098-.238l1.966-1.96a.333.333 0 01.239-.098h.984V3.613c0-2.09-.837-2.94-2.89-2.94zm-4.31 18.131c.602 0 .995.32.999 1.002 0 .326-.091.571-.252.736-.175.178-.43.266-.747.266-.316 0-.571-.088-.746-.266-.161-.165-.252-.407-.252-.736 0-.682.393-1.002.998-1.002zm9.94-12.884h-3.583L12.48 7.684v6.86c0 .374.158.532.53.532h4.82c.374 0 .532-.158.532-.531V6.45c0-.373-.158-.53-.531-.53zm-.387 3.096c.185 0 .337.151.337.336v4.252c0 .189-.152.34-.337.34h-4.05a.337.337 0 01-.336-.336V9.35c0-.185.151-.336.336-.336h4.05zm-3.04 3.576h-.672l.001.68.672-.001v-.679zm1.349 0h-.675v.679h.675v-.679zm1.355 0h-.682v.679h.682v-.679zm-3.377-1.553v.881h3.377v-.881h-3.377zm.674-1.351h-.675v.679h.675v-.679zm1.348 0h-.675v.679h.675v-.679zm1.355 0h-.682v.679h.682v-.679z" fill="#5CB615" fill-rule="nonzero"/></svg>
